X:48
T:The Peeking Pup                                                                                   
N:  C:Sharon Shannon                                                                                
M:3/4                                                                                               
K:G                                                                                                 
GE | D3 G G2 | G3 F G2 | A3 B c2 | d3 d c2 |\                                                       
B3 G G2 | B3 G G2 | A3 B c2 | A3 G E2 |                                                             
D3 G G2 | G3 F G2 | A3 B c2 | d3 d c2 |\                                                            
B3 G G2 | A3 B A2 | G6 |1 G4 GE :|2 G4 de ||                                                        
| g3 d d2 | g3 d d2 | c3 B c2 | B3 G G2 |\                                                          
g3 d d2 | g3 d d2 | c3 B c2 | A4   GE |                                                             
D3 G G2 | G3 F G2 | A3 B c2 | d3 d c2 |\                                                            
B3 G G2 | A3 B A2 | G6 |1 G4 de :|2 G4 GE ||
